client/public/assets/icons/standard/entity.svg

<?xml version="1.0"?><svg xmlns="http://www.w3.org/2000/svg" width="100" height="100" viewBox="0 0 100 100"><title></title><desc></desc><path fill="#fff" d="m74.4 28.7c0-4.8-10.9-8.7-24.4-8.7s-24.4 3.9-24.4 8.7v3c0 4.8 10.9 8.7 24.4 8.7s24.4-3.9 24.4-8.7v-3z m-48.8 10c0 3.8 10.9 6.8 24.4 6.8s24.4-3 24.4-6.8v6.2c0 4.8-10.9 8.7-24.4 8.7s-24.4-3.9-24.4-8.7v-6.2z m0 0c0 3.8 10.9 6.8 24.4 6.8s24.4-3 24.4-6.8v6.2c0 4.8-10.9 8.7-24.4 8.7s-24.4-3.9-24.4-8.7v-6.2z m0 13.2c0 3.8 10.9 6.8 24.4 6.8s24.4-3 24.4-6.8v6.1c0 4.8-10.9 8.7-24.4 8.7s-24.4-3.8-24.4-8.5v-6.3z m0 13.3c0 3.8 11 6.8 24.4 6.8s24.4-3 24.4-6.8v6.2c0 4.8-10.9 8.7-24.4 8.7s-24.4-3.9-24.4-8.7v-6.2z"></path></svg>

<?xml version="1.0" encoding="utf-8"?>
<!-- Generator: Adobe Illustrator 21.1.0, SVG Export Plug-In . SVG Version: 6.00 Build 0)  -->
<svg version="1.1" id="Layer_1" xmlns="http://www.w3.org/2000/svg" xmlns:xlink="http://www.w3.org/1999/xlink" x="0px" y="0px"
	 width="100px" height="100px" viewBox="0 0 100 100" enable-background="new 0 0 100 100" xml:space="preserve">
<title></title>
<desc></desc>
<path fill="#FFFFFF" d="M74.4,28.7c0-4.8-10.9-8.7-24.4-8.7s-24.4,3.9-24.4,8.7v3c0,4.8,10.9,8.7,24.4,8.7s24.4-3.9,24.4-8.7V28.7z
	 M25.6,38.7c0,3.8,10.9,6.8,24.4,6.8s24.4-3,24.4-6.8v6.2c0,4.8-10.9,8.7-24.4,8.7s-24.4-3.9-24.4-8.7V38.7z M25.6,38.7
	c0,3.8,10.9,6.8,24.4,6.8s24.4-3,24.4-6.8v6.2c0,4.8-10.9,8.7-24.4,8.7s-24.4-3.9-24.4-8.7V38.7z M25.6,51.9
	c0,3.8,10.9,6.8,24.4,6.8s24.4-3,24.4-6.8V58c0,4.8-10.9,8.7-24.4,8.7s-24.4-3.8-24.4-8.5C25.6,58.2,25.6,51.9,25.6,51.9z
	 M25.6,65.2C25.6,69,36.6,72,50,72s24.4-3,24.4-6.8v6.2c0,4.8-10.9,8.7-24.4,8.7s-24.4-3.9-24.4-8.7V65.2z"/>
</svg>
